assets/new_pipe_icon_5.svg

<svg height="204.8" viewBox="0 0 192 192" width="204.8" xmlns="http://www.w3.org/2000/svg" xmlns:xlink="http://www.w3.org/1999/xlink"><filter id="a" color-interpolation-filters="sRGB"><feFlood flood-opacity=".2" result="flood"/><feComposite in="flood" in2="SourceGraphic" operator="in" result="composite1"/><feGaussianBlur in="composite1" result="blur" stdDeviation="4"/><feOffset dx="0" dy="4" result="offset"/><feComposite in="SourceGraphic" in2="offset" operator="over" result="composite2"/></filter><radialGradient id="b" cx=".560124" cy=".357014" gradientTransform="matrix(.00132321 2.1587518 -2.1815784 .00133718 1.136984 -.392156)" gradientUnits="userSpaceOnUse" r="88"><stop offset="0" stop-color="#fff" stop-opacity=".1"/><stop offset="1" stop-color="#fff" stop-opacity="0"/></radialGradient><circle cx="88" cy="104" fill="#ff5252" r="0"/><circle cx="96" cy="96" fill="#ff7575" filter="url(#a)" r="88"/><path d="m184 96a88 88 0 0 1 -87.87704 87.99991 88 88 0 0 1 -88.1226164-87.75399" fill="#cc4242" filter="url(#a)"/><ellipse cx="96" cy="96" fill="#cd201f" filter="url(#a)" rx="88" ry="87"/><g fill-rule="evenodd"><circle cx="96.001991" cy="96.021873" fill="url(#b)" r="88"/><path d="m62.03771 154.84774 17.847497-11.37613.373296-75.40567 45.924707 27.26706-33.232665 19.16292v21.92836l69.034255-41.09128-100.040414-58.794506z" fill="#fff" filter="url(#a)"/></g></svg>

<?xml version="1.0" encoding="UTF-8" standalone="no"?>
<svg xmlns:dc="http://purl.org/dc/elements/1.1/" xmlns:cc="http://creativecommons.org/ns#" xmlns:rdf="http://www.w3.org/1999/02/22-rdf-syntax-ns#"
    xmlns="http://www.w3.org/2000/svg" xmlns:xlink="http://www.w3.org/1999/xlink" xmlns:sodipodi="http://sodipodi.sourceforge.net/DTD/sodipodi-0.dtd"
    xmlns:inkscape="http://www.inkscape.org/namespaces/inkscape" version="1.1" id="svg2" viewBox="0 0 192 192"
    height="204.8" width="204.8" inkscape:version="0.92.1 r" sodipodi:docname="new_pipe_icon_5.svg"
    inkscape:export-filename="/home/the-scrabi/Projects/NewPipe/assets/new_pipe_icon_5.png"
    inkscape:export-xdpi="120" inkscape:export-ydpi="120">
  <sodipodi:namedview
     pagecolor="#ffffff"
     bordercolor="#666666"
     borderopacity="1"
     objecttolerance="10"
     gridtolerance="10"
     guidetolerance="10"
     inkscape:pageopacity="0"
     inkscape:pageshadow="2"
     inkscape:window-width="1920"
     inkscape:window-height="1012"
     id="namedview4149"
     showgrid="false"
     inkscape:zoom="1.2836556"
     inkscape:cx="361.53411"
     inkscape:cy="-71.516938"
     inkscape:window-x="0"
     inkscape:window-y="32"
     inkscape:window-maximized="1"
     inkscape:current-layer="svg2" />
  <defs
     id="defs4">
    <linearGradient
       inkscape:collect="always"
       id="linearGradient4447">
      <stop
         style="stop-color:#ffffff;stop-opacity:0.1"
         offset="0"
         id="stop4449" />
      <stop
         style="stop-color:#ffffff;stop-opacity:0"
         offset="1"
         id="stop4451" />
    </linearGradient>
    <filter
       style="color-interpolation-filters:sRGB"
       inkscape:label="Drop Shadow"
       id="filter4454"
       width="1.4"
       height="1.4"
       x="-0.2"
       y="-0.2">
      <feFlood
         flood-opacity="0.427451"
         flood-color="rgb(0,0,0)"
         result="flood"
         id="feFlood4456" />
      <feComposite
         in="flood"
         in2="SourceGraphic"
         operator="in"
         result="composite1"
         id="feComposite4458" />
      <feGaussianBlur
         in="composite1"
         stdDeviation="10.9"
         result="blur"
         id="feGaussianBlur4460" />
      <feOffset
         dx="0"
         dy="7"
         result="offset"
         id="feOffset4462" />
      <feComposite
         in="SourceGraphic"
         in2="offset"
         operator="over"
         result="composite2"
         id="feComposite4464" />
    </filter>
    <filter
       style="color-interpolation-filters:sRGB"
       inkscape:label="Drop Shadow"
       id="filter4777">
      <feFlood
         flood-opacity="0.498039"
         flood-color="rgb(0,0,0)"
         result="flood"
         id="feFlood4779" />
      <feComposite
         in="flood"
         in2="SourceGraphic"
         operator="in"
         result="composite1"
         id="feComposite4781" />
      <feGaussianBlur
         in="composite1"
         stdDeviation="5.82011"
         result="blur"
         id="feGaussianBlur4783" />
      <feOffset
         dx="0"
         dy="5.6"
         result="offset"
         id="feOffset4785" />
      <feComposite
         in="SourceGraphic"
         in2="offset"
         operator="over"
         result="fbSourceGraphic"
         id="feComposite4787" />
      <feColorMatrix
         result="fbSourceGraphicAlpha"
         in="fbSourceGraphic"
         values="0 0 0 -1 0 0 0 0 -1 0 0 0 0 -1 0 0 0 0 1 0"
         id="feColorMatrix4789" />
      <feFlood
         id="feFlood4791"
         flood-opacity="0.498039"
         flood-color="rgb(0,0,0)"
         result="flood"
         in="fbSourceGraphic" />
      <feComposite
         id="feComposite4793"
         in2="fbSourceGraphic"
         in="flood"
         operator="in"
         result="composite1" />
      <feGaussianBlur
         id="feGaussianBlur4795"
         in="composite1"
         stdDeviation="5.8"
         result="blur" />
      <feOffset
         id="feOffset4797"
         dx="0"
         dy="5.6"
         result="offset" />
      <feComposite
         id="feComposite4799"
         in2="offset"
         in="fbSourceGraphic"
         operator="over"
         result="composite2" />
    </filter>
    <filter
       style="color-interpolation-filters:sRGB"
       inkscape:label="Drop Shadow"
       id="filter4885">
      <feFlood
         flood-opacity="0.498039"
         flood-color="rgb(0,0,0)"
         result="flood"
         id="feFlood4887" />
      <feComposite
         in="flood"
         in2="SourceGraphic"
         operator="in"
         result="composite1"
         id="feComposite4889" />
      <feGaussianBlur
         in="composite1"
         stdDeviation="7.9"
         result="blur"
         id="feGaussianBlur4891" />
      <feOffset
         dx="0"
         dy="2.54709"
         result="offset"
         id="feOffset4893" />
      <feComposite
         in="SourceGraphic"
         in2="offset"
         operator="over"
         result="fbSourceGraphic"
         id="feComposite4895" />
      <feColorMatrix
         result="fbSourceGraphicAlpha"
         in="fbSourceGraphic"
         values="0 0 0 -1 0 0 0 0 -1 0 0 0 0 -1 0 0 0 0 1 0"
         id="feColorMatrix4897" />
      <feFlood
         id="feFlood4899"
         flood-opacity="0.498039"
         flood-color="rgb(0,0,0)"
         result="flood"
         in="fbSourceGraphic" />
      <feComposite
         id="feComposite4901"
         in2="fbSourceGraphic"
         in="flood"
         operator="in"
         result="composite1" />
      <feGaussianBlur
         id="feGaussianBlur4903"
         in="composite1"
         stdDeviation="7.9"
         result="blur" />
      <feOffset
         id="feOffset4905"
         dx="0"
         dy="2.5"
         result="offset" />
      <feComposite
         id="feComposite4907"
         in2="offset"
         in="fbSourceGraphic"
         operator="over"
         result="composite2" />
    </filter>
    <filter
       style="color-interpolation-filters:sRGB"
       inkscape:label="Drop Shadow"
       id="filter4257">
      <feFlood
         flood-opacity="0.498039"
         flood-color="rgb(0,0,0)"
         result="flood"
         id="feFlood4259" />
      <feComposite
         in="flood"
         in2="SourceGraphic"
         operator="in"
         result="composite1"
         id="feComposite4261" />
      <feGaussianBlur
         in="composite1"
         stdDeviation="7.9"
         result="blur"
         id="feGaussianBlur4263" />
      <feOffset
         dx="0"
         dy="5.02645"
         result="offset"
         id="feOffset4265" />
      <feComposite
         in="SourceGraphic"
         in2="offset"
         operator="over"
         result="fbSourceGraphic"
         id="feComposite4267" />
      <feColorMatrix
         result="fbSourceGraphicAlpha"
         in="fbSourceGraphic"
         values="0 0 0 -1 0 0 0 0 -1 0 0 0 0 -1 0 0 0 0 1 0"
         id="feColorMatrix4269" />
      <feFlood
         id="feFlood4271"
         flood-opacity="0.498039"
         flood-color="rgb(0,0,0)"
         result="flood"
         in="fbSourceGraphic" />
      <feComposite
         id="feComposite4273"
         in2="fbSourceGraphic"
         in="flood"
         operator="in"
         result="composite1" />
      <feGaussianBlur
         id="feGaussianBlur4275"
         in="composite1"
         stdDeviation="7.9"
         result="blur" />
      <feOffset
         id="feOffset4277"
         dx="0"
         dy="5"
         result="offset" />
      <feComposite
         id="feComposite4279"
         in2="offset"
         in="fbSourceGraphic"
         operator="over"
         result="composite2" />
    </filter>
    <filter
       style="color-interpolation-filters:sRGB"
       inkscape:label="Drop Shadow"
       id="filter4192">
      <feFlood
         flood-opacity="0.498039"
         flood-color="rgb(0,0,0)"
         result="flood"
         id="feFlood4194" />
      <feComposite
         in="flood"
         in2="SourceGraphic"
         operator="in"
         result="composite1"
         id="feComposite4196" />
      <feGaussianBlur
         in="composite1"
         stdDeviation="7.7"
         result="blur"
         id="feGaussianBlur4198" />
      <feOffset
         dx="0"
         dy="5"
         result="offset"
         id="feOffset4200" />
      <feComposite
         in="SourceGraphic"
         in2="offset"
         operator="over"
         result="composite2"
         id="feComposite4202" />
    </filter>
    <filter
       style="color-interpolation-filters:sRGB"
       inkscape:label="Drop Shadow"
       id="filter4349">
      <feFlood
         flood-opacity="0.498039"
         flood-color="rgb(0,0,0)"
         result="flood"
         id="feFlood4351" />
      <feComposite
         in="flood"
         in2="SourceGraphic"
         operator="in"
         result="composite1"
         id="feComposite4353" />
      <feGaussianBlur
         in="composite1"
         stdDeviation="7.2"
         result="blur"
         id="feGaussianBlur4355" />
      <feOffset
         dx="0"
         dy="5"
         result="offset"
         id="feOffset4357" />
      <feComposite
         in="SourceGraphic"
         in2="offset"
         operator="over"
         result="composite2"
         id="feComposite4359" />
    </filter>
    <filter
       style="color-interpolation-filters:sRGB"
       inkscape:label="Drop Shadow"
       id="filter4361">
      <feFlood
         flood-opacity="0.498039"
         flood-color="rgb(0,0,0)"
         result="flood"
         id="feFlood4363" />
      <feComposite
         in="flood"
         in2="SourceGraphic"
         operator="in"
         result="composite1"
         id="feComposite4365" />
      <feGaussianBlur
         in="composite1"
         stdDeviation="5.3"
         result="blur"
         id="feGaussianBlur4367" />
      <feOffset
         dx="0"
         dy="5"
         result="offset"
         id="feOffset4369" />
      <feComposite
         in="SourceGraphic"
         in2="offset"
         operator="over"
         result="composite2"
         id="feComposite4371" />
    </filter>
    <filter
       style="color-interpolation-filters:sRGB"
       inkscape:label="Drop Shadow"
       id="filter4481">
      <feFlood
         flood-opacity="0.498039"
         flood-color="rgb(0,0,0)"
         result="flood"
         id="feFlood4483" />
      <feComposite
         in="flood"
         in2="SourceGraphic"
         operator="in"
         result="composite1"
         id="feComposite4485" />
      <feGaussianBlur
         in="composite1"
         stdDeviation="5"
         result="blur"
         id="feGaussianBlur4487" />
      <feOffset
         dx="0"
         dy="5"
         result="offset"
         id="feOffset4489" />
      <feComposite
         in="SourceGraphic"
         in2="offset"
         operator="over"
         result="composite2"
         id="feComposite4491" />
    </filter>
    <filter
       style="color-interpolation-filters:sRGB"
       inkscape:label="Drop Shadow"
       id="filter4433">
      <feFlood
         flood-opacity="0.2"
         flood-color="rgb(0,0,0)"
         result="flood"
         id="feFlood4435" />
      <feComposite
         in="flood"
         in2="SourceGraphic"
         operator="in"
         result="composite1"
         id="feComposite4437" />
      <feGaussianBlur
         in="composite1"
         stdDeviation="4"
         result="blur"
         id="feGaussianBlur4439" />
      <feOffset
         dx="0"
         dy="4"
         result="offset"
         id="feOffset4441" />
      <feComposite
         in="SourceGraphic"
         in2="offset"
         operator="over"
         result="composite2"
         id="feComposite4443" />
    </filter>
    <radialGradient
       inkscape:collect="always"
       xlink:href="#linearGradient4447"
       id="radialGradient4453"
       cx="0.56012386"
       cy="0.35701406"
       fx="0.56012386"
       fy="0.35701406"
       r="88"
       gradientUnits="userSpaceOnUse"
       gradientTransform="matrix(0.00132321,2.1587518,-2.1815784,0.00133718,1.1369842,-0.39215567)" />
  </defs>
  <metadata
     id="metadata7">
    <rdf:RDF>
      <cc:Work
         rdf:about="">
        <dc:format>image/svg+xml</dc:format>
        <dc:type
           rdf:resource="http://purl.org/dc/dcmitype/StillImage" />
        <dc:title />
      </cc:Work>
    </rdf:RDF>
  </metadata>
  <path
     style="opacity:1;fill:#ff7575;fill-opacity:1;stroke:none;stroke-width:17.10300064;stroke-miterlimit:4;stroke-dasharray:none;stroke-opacity:1"
     id="path4144-9"
     r="88"
     cy="104"
     cx="88"
     d=""
     inkscape:connector-curvature="0" />
  <circle
     style="fill:#ff5252;fill-opacity:1;stroke:none;stroke-width:17.10300064;stroke-miterlimit:4;stroke-dasharray:none;stroke-opacity:1"
     id="path4144-6"
     cx="88"
     cy="104"
     r="0" />
  <circle
     style="opacity:1;fill:#ff7575;fill-opacity:1;stroke:none;stroke-width:17.10300064;stroke-miterlimit:4;stroke-dasharray:none;stroke-opacity:1;filter:url(#filter4433)"
     id="path4144-67"
     cx="96"
     cy="96"
     r="88" />
  <path
     style="opacity:1;fill:#cc4242;fill-opacity:1;stroke:none;stroke-width:17.10300064;stroke-miterlimit:4;stroke-dasharray:none;stroke-opacity:1;filter:url(#filter4433)"
     id="path4144-5"
     sodipodi:type="arc"
     sodipodi:cx="96"
     sodipodi:cy="96"
     sodipodi:rx="88"
     sodipodi:ry="88"
     sodipodi:start="0"
     sodipodi:end="3.1387981"
     sodipodi:open="true"
     d="M 184,96 A 88,88 0 0 1 96.12296,183.99991 88,88 0 0 1 8.0003436,96.24592" />
  <ellipse
     style="fill:#cd201f;fill-opacity:1;stroke:none;stroke-width:17.10300064;stroke-miterlimit:4;stroke-dasharray:none;stroke-opacity:1;filter:url(#filter4433)"
     id="path4144"
     cx="96"
     cy="96"
     rx="88"
     ry="87" />
  <circle
     style="opacity:1;fill:url(#radialGradient4453);fill-opacity:1;fill-rule:evenodd;stroke:none;stroke-width:3.5;stroke-linecap:butt;stroke-linejoin:miter;stroke-miterlimit:4;stroke-dasharray:none;stroke-opacity:1"
     id="path4445"
     cx="96.001991"
     cy="96.021873"
     r="88" />
  <path
     style="fill:#ffffff;fill-opacity:1;fill-rule:evenodd;stroke:none;stroke-width:1px;stroke-linecap:butt;stroke-linejoin:miter;stroke-opacity:1;filter:url(#filter4433)"
     d="M 62.03771,154.84774 79.885207,143.47161 80.258503,68.06594 126.18321,95.333 92.950545,114.49592 v 21.92836 L 161.9848,95.333 61.944386,36.538494 Z"
     id="path4234"
     inkscape:connector-curvature="0"
     sodipodi:nodetypes="ccccccccc" />
</svg>
